X:004
T:Albert Farmer's Bonfire Tune
M:4/4
L:1/8
K:D
de | f3 d A2 F2 | G2 GF G4 | edcA B2 c2 | dffd A2 de | 
f3 d A2 F2 | G2 GF G4 | edcA B2 c2 | d4 d2 :| 
de | f2 fd f2 f2 | gfed e4 | gfed cABc | dffd A2 de | 
f3 d A2 F2 | G2 GF G4 | edcA B2 c2 | d4 d2 :| 

